X:1
T:How Can I Keep from Singing?
T:Text: Robert Lowry (1826-1899), alt. Tune: Robert Lowry (1826-1899)
T:87 87 Refrain ENDLESS SONG www.hymnary.org/text/my_life_flows_on_in_endless_song
T:How Can I Keep from Singing?
T:This hymn is in the public domain.  You may freely use this score for personal and congregational worship.  If you reproduce the score, please credit Hymnary.org as the source. 
T:This hymn is in the public domain.  You may freely use this score for personal and congregational worship.  If you reproduce the score, please credit Hymnary.org as the source. 
Z:This hymn is in the public domain.  You may freely use this score for personal and congregational worship.  If you reproduce the score, please credit Hymnary.org as the source.
%%score ( 1 2 ) ( 3 4 )
L:1/8
M:4/4
K:F
V:1 treble nm="Piano" snm="Pno."
V:2 treble 
V:3 bass nm="Piano" snm="Pno."
V:4 bass 
V:1
 C | [CF]2 [CG]2 [FA]2 [CF]2 | [DG] [DF]2 [B,D]- [B,D]3 [B,F] | C2 [DF]2 [Fc]3 [FA] | %4
w: 3~What|though my joys and|com- forts die? _ The|Lord my Sa- vior|
w: 1~My|life flows on in|end- less song; _ a-|bove earth’s la- men-|
w: 2~Through|all the tu- mult|and the strife, _ I|hear the mu- sic|
 [FA] [EG]3- [EG]3 | C | [CF]2 [EG]2 [FA]2 [CF]2 | [DG] [DF]2 [B,D]- [B,D]3 [B,D] | %8
w: liv- eth. _|What|though the dark- ness|gath- er round? _ Songs|
w: ta- tion, _|I|catch the sweet, though|far- off hymn _ that|
w: ring- ing. _|It|finds an ech- o|in my soul. _ How|
 C2 [CF]2 [FA]3 [CG] | [CG][CF]- [CF]4 ||"^Refrain" [FA]2 | [Fc]2 [Gc]2 [Ac]2 [FA]2 | %12
w: in the night he|giv- eth. *|No|storm can shake my|
w: hails a new cre-|a- tion. *|||
w: can I keep from|sing- ing? *|||
 [EG] [EA]2 [DF]- [DF]3 [EG] | [FA]2 [FA]2 [FA]2 [EG]2 | [FA] [Ac]3- [Ac]3 | [FA] | %16
w: in- most calm _ while|to that Rock I'm|cling- ing. _|Since|
w: ||||
w: ||||
 [Fc]2 [Fc]2 [Fc]2 (AG) | [DF][DF] [B,D]2 [A,C]4 | C2 [DF][EG] [FA]6 [EG]2 | [EG] F3- F3 |] %20
w: Christ is Lord of _|hea- ven and earth,|how can I keep from|sing- ing? *|
w: ||||
w: ||||
V:2
 C | x8 | x8 | C2 x6 | x7 | C | x8 | x8 | C2 x6 | x6 || x2 | x8 | x8 | x8 | x7 | x | x6 F2 | x8 | %18
 C2 x10 | x F3- F3 |] %20
V:3
 C, | [F,A,]2 [F,B,]2 [F,C]2 [F,A,]2 | [B,,B,] [B,,B,]2 [B,,F,]- [B,,F,]3 [D,F,] | %3
 [F,A,]2 [F,B,]2 [F,A,]3 [F,C] | [C,C] [C,C]3- [C,C]3 | C, | [A,,F,]2 [C,C]2 [F,C]2 [F,A,]2 | %7
 [B,,B,] [B,,B,]2 [B,,F,]- [B,,F,]3 [B,,F,] | [A,,F,]2 [F,,A,]2 [C,C]3 [C,B,] | %9
 [F,,B,][F,,A,]- [F,,A,]4 || F,2 | [F,A,]2 [F,B,]2 [F,C]2 [F,C]2 | %12
 [C,C] [C,C]2 [D,A,]- [D,A,]3 [C,C] | [F,C]2 [F,C]2 [F,C]2 [C,C]2 | [F,C] [F,C]3- [F,C]3 | [F,C] | %16
 [F,A,]2 [G,B,]2 [A,C]2 [F,C]2 | [B,,B,][B,,B,] [B,,F,]2 F,4 | %18
 [F,A,]2 [D,A,][C,B,] [C,C]6 [C,B,]2 | [F,,B,] [F,,A,]3- [F,,A,]3 |] %20
V:4
 C, | x8 | x8 | x8 | x7 | C, | x8 | x8 | x8 | x6 || F,2 | x8 | x8 | x8 | x7 | x | x8 | x4 F,4 | %18
 x12 | x7 |] %20

